X: 1975
T: Wendy Anne
C:Arthur Bowley, (1913-2006)
B: australian traditional tunes wiki
M:3/4
L:1/8
R: Waltz
Q: 1/4=100
K:G
V:1 
|"G"D2E2F2|G2A2^A2|B2e2^d2|d6|B6|d6|"D7"c6-|c6|
"D7"D2F2A2|c2f2c2|e4^d2|d6|f6|e4c2|"G"B6-|B6|
"G"D2E2F2|G2A2^A2|B2e2^d2|d6|g6|a4g2|"C"g6-|g6|
"C"g4fg|a2g2e2|"G"d4cd|"Em"e2d2c2|"A7"B6|"D"A6|"G"G6|d2e2f2||
||"G"g2ggg2|g2ggg2|"Am"f2e2^d2|e6|"D"f2fff2|f2fff2|"G"e2d3c|d6|
"G"g2ggg2|g2ggg2|"C"a2g2f2|e6|"G"d2b2g2|"D"f2g2a2|"G"g6-|g6||
% abcbook-tune_id 6342d5be7caf84461df84d8c


% abcbook-boost 0
% abcbook-tablature 
% abcbook-transpose 
% abcbook-lastupdated 1665324491830
% abcbook-soundfonts 
% abcbook-repeats 1
% NFF Book 2010

